X:1
T: La Russe
C:
R:Reel
Q: 232
K:D
M:4/4
L:1/8
|:D|D2 FF F2 AA|A2 d2 d2 cd|e2 d2 B2 G2|B2 A2 AG FE|
D2 FF F2 AA|A2 d2 d2 cd|B2 A2 A2 C2|E2 D2 D2 EE|
E2 A2 A2 F2|E2 e2 e2 c2|d2 c2 d2 B2|cd ed c2 EE|
E2 A2 A2 F2|E2 e2 e2 c2|d2 c2 d2 B2|1A4 A2 EE:|2A4 A3||
